**kern	**kern	**dynam
*part1	*part1	*part1
*staff2	*staff1	*
*I"Piano	*	*
*clefF4	*clefG2	*
*k[]	*k[]	*
=1	=1	=1
!	!LO:TX:b:i:t=a tempo	!
(16AALL	(8eeL	.
16E	.	.
16A	8.cc	.
16c	.	.
16eJJ>)	.	.
16rEE	16bJk	.
=	=	=
(16ELL	8gL	>
16BJ	.	.
8dJ)	16bL	.
.	16a	.
8r	16f	.
.	16gJJ	.
=	=	=
(16AAALL	8eL	.
16EE	.	.
16AA	8.c<	.
16C	.	.
16EJJ)	.	.
16rBB	16BJk<	.
=	=	=
(16EELL	8GL<	.
16BBJ	.	.
8DJ)	16BL<	]
.	16A<	.
8rGG	16F<	.
.	16GJJ<	.
=	=	=
4.AAA 4.EE 4.AA	8EL<)	.
!	!	!LO:DY:a
.	(8c 8e 8a	pp
.	8eJ 8a 8cc	<
=	=	=
4.EE: 4.C: 4.E:	8eL 8g 8cc 8ee	.
.	16ddL	.
.	16ccJ	.
.	8gJ)	.
=	=	=
4.AA: 4.E: 4.A:	(8cL 8e 8a	.
.	8e 8a 8cc	.
.	8aJ 8cc 8ee	[
=	=	=
*-	*-	*-
!!!system-decoration: {(s1,s2)}
!!!RDF**kern: > = above
!!!RDF**kern: < = below
